icons/speech-bubble-world-two-color.svg

<?xml version="1.0" encoding="UTF-8"?><svg xmlns="http://www.w3.org/2000/svg" viewBox="0 0 50 50"><g id="uuid-944cd1d4-b874-4549-a4ee-e7712fb5b24a"><g><path d="M36.87,9.48H15.63c-6.64,0-12.04,5.84-12.04,13.01s4.96,12.56,11.29,12.97c.24,.02,.43,.2,.46,.43l.96,7.09,7.84-7.35c.09-.09,.22-.14,.34-.14h12.39c6.64,0,12.04-5.84,12.04-13.02s-5.4-13.01-12.04-13.01Zm-12.12,20.32c-4.79,0-8.67-3.88-8.67-8.67s3.88-8.67,8.67-8.67,8.67,3.88,8.67,8.67-3.88,8.67-8.67,8.67Z" fill="#ffcd00"/><path d="M35.37,6.98H14.13C6.94,6.98,1.09,13.26,1.09,20.99c0,7.23,5.16,13.27,11.82,13.94l1.03,7.66c.02,.19,.15,.34,.33,.4,.05,.02,.11,.03,.17,.03,.12,0,.25-.05,.34-.14l8.4-7.88h12.2c7.19,0,13.04-6.29,13.04-14.02s-5.85-14.01-13.04-14.01Zm0,27.03h-12.39c-.13,0-.25,.05-.34,.14l-7.84,7.35-.96-7.09c-.03-.24-.23-.42-.46-.43-6.33-.42-11.29-6.12-11.29-12.97S7.49,7.98,14.13,7.98h21.25c6.64,0,12.04,5.84,12.04,13.01s-5.4,13.02-12.04,13.02Z"/><path d="M24.75,11.66c-5.22,0-9.47,4.25-9.47,9.47s4.25,9.47,9.47,9.47,9.47-4.25,9.47-9.47-4.25-9.47-9.47-9.47Zm-.08,17.64c-.63-.6-1.7-1.79-2.51-3.49h5.03c-.81,1.71-1.89,2.89-2.51,3.49Zm-2.93-4.49c-.37-1.02-.62-2.18-.65-3.49h7.15c-.03,1.3-.28,2.47-.65,3.49h-5.85Zm-5.45-3.49h3.8c.02,1.29,.25,2.45,.59,3.49h-3.55c-.51-1.06-.81-2.24-.84-3.49Zm8.38-8.42c.56,.53,1.46,1.52,2.23,2.93h-4.45c.76-1.4,1.67-2.4,2.23-2.93Zm2.71,3.93c.43,1.01,.75,2.17,.85,3.49h-7.11c.09-1.32,.42-2.48,.85-3.49h5.41Zm-7.26,3.49h-3.8c.12-1.26,.52-2.45,1.14-3.49h3.42c-.4,1.02-.68,2.19-.77,3.49Zm9.13,1h3.96c-.03,1.25-.33,2.43-.84,3.49h-3.7c.34-1.03,.56-2.2,.59-3.49Zm-.02-1c-.09-1.3-.37-2.46-.77-3.49h3.58c.62,1.04,1.02,2.22,1.14,3.49h-3.95Zm2.12-4.49h-3.33c-.66-1.34-1.46-2.38-2.1-3.08,2.19,.3,4.11,1.44,5.43,3.08Zm-7.94-3.06c-.64,.7-1.43,1.73-2.08,3.06h-3.17c1.29-1.6,3.14-2.72,5.25-3.06Zm-5.71,13.03h3.37c.71,1.64,1.66,2.88,2.39,3.68-2.4-.37-4.47-1.74-5.76-3.68Zm8.16,3.71c.74-.79,1.7-2.05,2.42-3.71h3.52c-1.32,1.99-3.47,3.38-5.94,3.71Z"/></g></g><g id="uuid-03b60191-a22e-44cb-9e29-ff998f3456b1"><text transform="translate(-.28 54.86)" font-family="Roboto-Regular, Roboto" font-size="6"><tspan x="0" y="0">speech-bubble-world</tspan></text></g></svg>

<svg xmlns="http://www.w3.org/2000/svg" viewBox="0 0 50 50"><g id="e2e7ea05-b57d-43b1-aab6-c97f7126303c" data-name="ICONS"><path d="M36.87,9.48H15.63c-6.64,0-12,5.84-12,13,0,6.86,5,12.56,11.29,13a.5.5,0,0,1,.47.43l1,7.09,7.84-7.35a.51.51,0,0,1,.34-.13H36.87c6.64,0,12-5.84,12-13S43.51,9.48,36.87,9.48ZM24.75,29.8a8.67,8.67,0,1,1,8.67-8.67A8.67,8.67,0,0,1,24.75,29.8Z" fill="#fdd600"/><path d="M35.37,7H14.13c-7.19,0-13,6.28-13,14,0,7.24,5.16,13.27,11.82,13.94l1,7.66a.49.49,0,0,0,.33.4.45.45,0,0,0,.16,0,.51.51,0,0,0,.35-.13L23.18,35H35.37c7.19,0,13-6.29,13-14S42.56,7,35.37,7Zm0,27H23a.51.51,0,0,0-.34.13L14.8,41.49l-1-7.09a.5.5,0,0,0-.47-.43C7.05,33.55,2.09,27.85,2.09,21c0-7.17,5.4-13,12-13H35.37c6.64,0,12,5.84,12,13S42,34,35.37,34Z" fill="#231f20"/><path d="M24.75,11.66a9.47,9.47,0,1,0,9.47,9.47A9.48,9.48,0,0,0,24.75,11.66ZM24.67,29.3a12.33,12.33,0,0,1-2.51-3.49h5A12.13,12.13,0,0,1,24.67,29.3Zm-2.92-4.49a10.68,10.68,0,0,1-.65-3.49h7.15a11,11,0,0,1-.65,3.49Zm-5.46-3.49H20.1a11.8,11.8,0,0,0,.58,3.49H17.14A8.35,8.35,0,0,1,16.29,21.32Zm8.38-8.42a12.5,12.5,0,0,1,2.23,2.93H22.45A12.52,12.52,0,0,1,24.67,12.9Zm2.71,3.93a11,11,0,0,1,.85,3.49H21.12A10.71,10.71,0,0,1,22,16.83Zm-7.26,3.49h-3.8a8.46,8.46,0,0,1,1.14-3.49h3.43A11.54,11.54,0,0,0,20.12,20.32Zm9.13,1h4a8.35,8.35,0,0,1-.85,3.49h-3.7A12.13,12.13,0,0,0,29.25,21.32Zm0-1a12.17,12.17,0,0,0-.77-3.49H32a8.46,8.46,0,0,1,1.14,3.49Zm2.12-4.49H28a13.37,13.37,0,0,0-2.1-3.08A8.47,8.47,0,0,1,31.35,15.83Zm-8-3.05a13.57,13.57,0,0,0-2.07,3.05H18.15A8.47,8.47,0,0,1,23.4,12.78Zm-5.7,13h3.37a13.13,13.13,0,0,0,2.39,3.67A8.49,8.49,0,0,1,17.7,25.81Zm8.16,3.7a13.27,13.27,0,0,0,2.42-3.7H31.8A8.45,8.45,0,0,1,25.86,29.51Z" fill="#231f20"/></g><g id="e294451b-d7ea-47cc-aae7-ce9b6437bd36" data-name="LABELS"><text transform="translate(-0.28 54.86)" font-size="6" fill="#231f20" font-family="Roboto-Regular, Roboto">speech-bubble-world</text></g></svg>
